packages/icons/svg/32/User.svg

<svg width="32" height="32" viewBox="0 0 32 32" fill="none" xmlns="http://www.w3.org/2000/svg">
<path fill-rule="evenodd" clip-rule="evenodd" d="M21.3892 11.3571C21.3892 14.3158 19.0044 16.7143 16.0625 16.7143C13.1206 16.7143 10.7358 14.3158 10.7358 11.3571C10.7358 8.39847 13.1206 6 16.0625 6C19.0044 6 21.3892 8.39847 21.3892 11.3571ZM16.0625 16.7143C20.3772 16.7143 23.875 20.1158 23.875 24.3117V24.5714C23.875 25.3604 23.239 26 22.4545 26H9.67045C8.88596 26 8.25 25.3604 8.25 24.5714V24.3117C8.25 20.1158 11.7478 16.7143 16.0625 16.7143Z" fill="#858585"/>
</svg>

<svg width="32" height="32" fill="none" xmlns="http://www.w3.org/2000/svg" viewBox="0 0 32 32"><path fill-rule="evenodd" clip-rule="evenodd" d="M21.39 11.357c0 2.959-2.386 5.357-5.328 5.357-2.941 0-5.326-2.398-5.326-5.357S13.12 6 16.062 6c2.942 0 5.327 2.398 5.327 5.357zm-5.328 5.357c4.315 0 7.813 3.402 7.813 7.598v.26c0 .788-.636 1.428-1.42 1.428H9.67c-.784 0-1.42-.64-1.42-1.429v-.26c0-4.195 3.498-7.597 7.813-7.597z" fill="currentColor"></path></svg>
